X: 30
T:La Morisque
R:polka
C:Susato
S:Bear Sessions
M:2/4
L:1/8
K:G
D|B/2c/2 dde | d3c |B GGA | F2D2 |
 |B/2c/2 dde |d3c |B GGA | G3 :| 
A|BGGA|BGcA|BGGA|F2D2|
 |BGGA|BGcA|BGGA|G3:|
